Newaita/actions/scalable/media-playback-stop.svg

<?xml version="1.0" encoding="UTF-8"?>
<svg xmlns="http://www.w3.org/2000/svg" xmlns:xlink="http://www.w3.org/1999/xlink" width="512pt" height="512pt" viewBox="0 0 512 512" version="1.1">
<g id="surface1">
<path style=" stroke:none;fill-rule:nonzero;fill:rgb(25.882354%,25.882354%,25.882354%);fill-opacity:1;" d="M 254.023438 25.167969 C 125.023438 25.167969 21.167969 129.023438 21.167969 258.023438 C 21.167969 387.027344 125.023438 490.878906 254.023438 490.878906 C 383.027344 490.878906 486.878906 387.027344 486.878906 258.023438 C 486.878906 129.023438 383.027344 25.167969 254.023438 25.167969 Z M 254.023438 56.921875 C 365.433594 56.921875 455.125 146.613281 455.125 258.023438 C 455.125 369.433594 365.433594 459.125 254.023438 459.125 C 142.613281 459.125 52.921875 369.433594 52.921875 258.023438 C 52.921875 146.613281 142.613281 56.921875 254.023438 56.921875 Z M 254.023438 56.921875 "/>
<path style=" stroke:none;fill-rule:nonzero;fill:rgb(25.882354%,64.705884%,96.078432%);fill-opacity:1;" d="M 179.933594 152.179688 C 162.34375 152.179688 148.179688 166.34375 148.179688 183.933594 L 148.179688 332.113281 C 148.179688 349.707031 162.34375 363.867188 179.933594 363.867188 L 328.113281 363.867188 C 345.707031 363.867188 359.867188 349.707031 359.867188 332.113281 L 359.867188 183.933594 C 359.867188 166.34375 345.707031 152.179688 328.113281 152.179688 Z M 190.519531 183.933594 L 317.53125 183.933594 C 323.394531 183.933594 328.113281 188.65625 328.113281 194.519531 L 328.113281 321.53125 C 328.113281 327.394531 323.394531 332.117188 317.53125 332.117188 L 190.519531 332.117188 C 184.65625 332.117188 179.933594 327.394531 179.933594 321.53125 L 179.933594 194.519531 C 179.933594 188.65625 184.65625 183.933594 190.519531 183.933594 Z M 190.519531 183.933594 "/>
</g>
</svg>

<svg xmlns="http://www.w3.org/2000/svg" width="512pt" height="512pt" viewBox="0 0 512 512"><path d="M254.023 25.168c-129 0-232.855 103.855-232.855 232.855 0 129.004 103.855 232.856 232.855 232.856 129.004 0 232.856-103.852 232.856-232.856 0-129-103.852-232.855-232.856-232.855zm0 31.754c111.41 0 201.102 89.691 201.102 201.101s-89.691 201.102-201.102 201.102c-111.41 0-201.101-89.691-201.101-201.102 0-111.41 89.691-201.101 201.101-201.101zm0 0" fill="#424242"/><path d="M179.934 152.18c-17.59 0-31.754 14.164-31.754 31.754v148.18c0 17.593 14.164 31.753 31.754 31.753h148.18a31.682 31.682 0 0 0 31.753-31.754v-148.18c0-17.59-14.16-31.753-31.754-31.753zm10.586 31.754H317.53a10.561 10.561 0 0 1 10.582 10.586V321.53a10.561 10.561 0 0 1-10.582 10.586H190.52a10.564 10.564 0 0 1-10.586-10.586V194.52a10.564 10.564 0 0 1 10.586-10.586zm0 0" fill="#42a5f5"/></svg>
